img/vector-3.svg

<svg fill="none" height="147" viewBox="0 0 181 147" width="181" xmlns="http://www.w3.org/2000/svg"><path d="m71.303 135.923c.5972-.597.5972-1.565 0-2.162l-9.7321-9.733c-.5972-.597-1.5655-.597-2.1627 0-.5972.598-.5972 1.566 0 2.163l8.6508 8.651-8.6508 8.651c-.5972.597-.5972 1.565 0 2.162s1.5655.597 2.1627 0zm-69.13299-67.6036h1.52925zm68.05169-66.52234v1.52925zm108.5763 1.52925c.845 0 1.53-.68467 1.53-1.52925 0-.844584-.685-1.529252-1.53-1.529252zm-108.5764 129.98669c-36.7722 0-66.52234-29.131-66.52234-64.9936h-3.058497c-.000007 37.6166 31.185337 68.0516 69.580837 68.0516zm-66.52234-64.9936c.00001-35.8561 30.16384-64.99313 66.52244-64.99309v-3.058502c-37.9695-.000038-69.58093 30.429092-69.580937 68.051592zm66.52244-64.99309h108.5763v-3.058502h-108.5763z" fill="#5b57ca"/></svg>

<svg width="181" height="147" viewBox="0 0 181 147" fill="none" xmlns="http://www.w3.org/2000/svg">
<path d="M71.303 135.923C71.9002 135.326 71.9002 134.358 71.303 133.761L61.5709 124.028C60.9737 123.431 60.0054 123.431 59.4082 124.028C58.811 124.626 58.811 125.594 59.4082 126.191L68.059 134.842L59.4082 143.493C58.811 144.09 58.811 145.058 59.4082 145.655C60.0054 146.252 60.9737 146.252 61.5709 145.655L71.303 135.923ZM2.17001 68.3194H3.69926H2.17001ZM70.2217 1.79706V3.32631V1.79706ZM178.798 3.32631C179.643 3.32631 180.328 2.64164 180.328 1.79706C180.328 0.952476 179.643 0.267808 178.798 0.267808V3.32631ZM70.2216 133.313C33.4494 133.313 3.69926 104.182 3.69926 68.3194H0.640763C0.640756 105.936 31.8261 136.371 70.2216 136.371V133.313ZM3.69926 68.3194C3.69927 32.4633 33.8631 3.32627 70.2217 3.32631L70.2217 0.267808C32.2522 0.26777 0.64077 30.6969 0.640763 68.3194H3.69926ZM70.2217 3.32631H178.798V0.267808H70.2217V3.32631Z" fill="#5B57CA"/>
</svg>
